X:1
T:Virtuoso [1], The
M:C
L:1/8
R:Hornpipe
S:Harding’s All Round Collection (1905), No. 9
Z:AK/Fiddler’s Companion
K:F
c/=B>c |: c>AF>C A,>c=B>d | c>AF>C A,>c=B>c | a>fc>A f>cA>F | c>cB>G E>g^f>a |
g>ec>G E>g^f>a | g>ec>G E>g^f>g | b>ge>c B>GE>C |1 F2A2 F>cB>d :|2 F2A2F2 ||
F2 |: F>dB>d f>dB>d | c>BA>G F>Ac>f | e>bg>e c>dB>c | A>cf>a f2F2 |
F>dB>d f>dB>d | c>BA>G F>Ac>f | e>bg>e c>B G>E |1 F2f2f2F2 :|2 F2f2 f>c=B>d ||

